src/main/resources/img/expui/action/ConnectionCommit_dark.svg

<svg width="16" height="16" version="1.1" viewBox="0 0 16 16"  xmlns="http://www.w3.org/2000/svg"><path d="m5.5 3c-1.9508-3.34e-5 -5.5 0.28974-5.5 2v8.9902c0 1.5127 3.125 2.0129 5.5 2.0098 1.7535-0.002363 3.9142-0.27393 4.9258-1.0195a2.5002 2.5002 0 0 1-1.375-0.45117c-0.82084 0.26744-2.0995 0.4707-3.5508 0.4707-2.5 0-4.5-0.59961-4.5-1.0996v-1.7012s1 0.80469 4.5 0.80469c0.78863 0 1.4442-0.042232 1.9961-0.10547l-0.84766-0.94336c-0.36691 0.027639-0.75006 0.044922-1.1484 0.044922-2.5 0-4.5-0.59961-4.5-1.0996v-1.7051s0.88064 0.70732 3.8789 0.79492l-0.73633-0.81836a2.5002 2.5002 0 0 1-0.17188-0.25c-1.7375-0.17737-2.9707-0.62924-2.9707-1.0215v-1.7051s0.62405 0.49641 2.5879 0.70898a2.5002 2.5002 0 0 1 0.47656-0.95312c-1.7804-0.12255-3.0645-0.47252-3.0645-0.95117 0-0.6 2.0147-1 4.5-1 0.16896 0 0.33587 0.0022246 0.5 0.0058594v-0.99609c-0.17433-0.0055586-0.34357-0.0097629-0.5-0.0097656zm5 5a2.5002 2.5002 0 0 1-0.36133 0.36133l0.36133 0.40234 0.36133-0.40234a2.5002 2.5002 0 0 1-0.36133-0.36133z" fill="#ced0d6"/><g stroke-linejoin="round" ><path d="m8.5 1.5h4v6h2.5l-4.5 5-4.5-5h2.5z" color="#000000" fill="#253627"/><path d="m8.5 1a0.50005 0.50005 0 0 0-0.5 0.5v5.5h-2a0.50005 0.50005 0 0 0-0.37109 0.83398l4.5 5a0.50005 0.50005 0 0 0 0.74219 0l4.5-5a0.50005 0.50005 0 0 0-0.37109-0.83398h-2v-5.5a0.50005 0.50005 0 0 0-0.5-0.5zm0.5 1h3v5.5a0.50005 0.50005 0 0 0 0.5 0.5h1.3789l-3.3789 3.7539-3.3789-3.7539h1.3789a0.50005 0.50005 0 0 0 0.5-0.5z" color="#000000" fill="#57965c"/></g></svg>

<svg width="16" height="16" xmlns="http://www.w3.org/2000/svg"><path d="M5.5 3C3.55 3 0 3.29 0 5v8.99c0 1.513 3.125 2.013 5.5 2.01 1.754-.002 3.914-.274 4.926-1.02a2.5 2.5 0 0 1-1.375-.45c-.821.267-2.1.47-3.551.47C3 15 1 14.4 1 13.9v-1.7s1 .804 4.5.804c.789 0 1.444-.042 1.996-.106l-.848-.943c-.366.028-.75.045-1.148.045C3 12 1 11.4 1 10.9V9.195s.88.708 3.879.795l-.736-.818a2.5 2.5 0 0 1-.172-.25C2.233 8.745 1 8.292 1 7.9V6.195s.624.497 2.588.71a2.5 2.5 0 0 1 .476-.954C2.284 5.83 1 5.48 1 5c0-.6 2.015-1 4.5-1 .169 0 .336.002.5.006V3.01C5.826 3.004 5.656 3 5.5 3zm5 5a2.5 2.5 0 0 1-.361.361l.361.403.361-.403A2.5 2.5 0 0 1 10.5 8z" fill="#ced0d6"/><g stroke-linejoin="round" color="#000"><path d="M8.5 1.5h4v6H15l-4.5 5-4.5-5h2.5z" fill="#253627"/><path d="M8.5 1a.5.5 0 0 0-.5.5V7H6a.5.5 0 0 0-.371.834l4.5 5a.5.5 0 0 0 .742 0l4.5-5A.5.5 0 0 0 15 7h-2V1.5a.5.5 0 0 0-.5-.5zM9 2h3v5.5a.5.5 0 0 0 .5.5h1.379L10.5 11.754 7.121 8H8.5a.5.5 0 0 0 .5-.5z" fill="#57965c"/></g></svg>
